assets/icons/uEB01-bill.svg

<svg xmlns="http://www.w3.org/2000/svg" width="896" height="1232" viewBox="0 0 896 1232"><path d="M267 490q47 0 47-30 0-25-51-42-89-30-89-88 0-72 78-85v-49h56v45q33 1 69 16l-16 55q-34-17-69-17-42 0-42 27 0 12 13 20.5t45 20.5q44 15 63.5 36.5T391 453q0 34-21.5 58T308 542v46h-56v-42q-48-3-80-21l15-56q38 21 80 21zm209 70v-28h280v28H476zm0 84v-28h280v28H476zm0 84v-28h280v28H476zm-336 0v-28h280v28H140zm336 84v-28h280v28H476zm-336 0v-28h280v28H140zm740-528q16 16 16 41v571q0 23-16.5 39.5T840 952H56q-23 0-39.5-16.5T0 896V112q0-23 16.5-39.5T56 56h573q22 0 40 16zm-40 612V336H616V112H56v784h784zM644 308h196L644 112v196z"/></svg>

<?xml version="1.0" encoding="UTF-8" standalone="no"?><svg   xmlns:svg="http://www.w3.org/2000/svg"   xmlns="http://www.w3.org/2000/svg"   version="1.1"   width="896"   height="1232"   viewBox="0 0 896 1232">  <path     d="M267 490Q314 490 314 460Q314 435 263 418Q174 388 174 330Q174 258 252 245V196H308V241Q341 242 377 257L361 312Q327 295 292 295Q250 295 250 322Q250 334 263 342.5T308 363Q352 378 371.5 399.5T391 453Q391 487 369.5 511T308 542V588H252V546Q204 543 172 525L187 469Q225 490 267 490zM476 560V532H756V560H476zM476 644V616H756V644H476zM476 728V700H756V728H476zM140 728V700H420V728H140zM476 812V784H756V812H476zM140 812V784H420V812H140zM880 284Q896 300 896 325V896Q896 919 879.5 935.5T840 952H56Q33 952 16.5 935.5T0 896V112Q0 89 16.5 72.5T56 56H629Q651 56 669 72zM840 896V336H616V112H56V896H840zM644 308H840L644 112V308z"     id="icon130" /></svg>
